lib/healthicons/icons/outline/people/water_sanitation.svg

<svg fill="none" height="48" viewBox="0 0 48 48" width="48" xmlns="http://www.w3.org/2000/svg"><g fill="#333"><path clip-rule="evenodd" d="m42 6v6h-19v-4c0-1.10457.8954-2 2-2zm-17 2h15v2h-15z" fill-rule="evenodd"/><path clip-rule="evenodd" d="m13 39.7493v.2468c0 1.1045-.8954 2-2 2h-3c-1.10457 0-2-.8955-2-2v-10.9954c0-1.1045.89543-2 2-2h3c.946 0 1.7386.6568 1.9467 1.5393 1.3244-.4773 2.8713-1.0454 3.3446-1.2612.402-.1831.8662-.2453 1.2519-.2676.4056-.0234.8264-.0072 1.1946.0213.3714.0287.7085.0716.9519.107.1222.0178.2222.0339.2927.0457.0353.006.0633.0108.0831.0144l.0235.0042.0069.0013.0036.0006.0179.0034 6.6888 1.5005.0418.0134.0114.0035.0461.0141c.0421.0127.106.0314.1884.0542.1651.0458.4025.1075.6855.1692.5749.1254 1.2991.2425 1.9744.2425.6239 0 1.2693.2325 1.6143.8644.2963.5425.2273 1.1382.1164 1.5507-.1381.5134-.4241 1.0537-.7877 1.5127.4907-.1851 1.0271-.4043 1.6029-.6405l.1231-.0506c1.623-.666 3.5475-1.4558 5.245-1.7365 1.9397-.3209 3.3515.3832 3.9915 1.6324.5697 1.1119.4374 2.5713-.42 3.4506-.2152.2207-.5431.4522-.8724.6658-.3516.228-.7847.4857-1.2659.7586-.9638.5467-2.1569 1.1751-3.3548 1.7826-2.372 1.203-4.8584 2.3729-5.6485 2.6622-.9156.3354-1.8991.3671-2.8449.3184-.5152-.0265-1.1137-.086-1.7086-.1452-.4298-.0427-.8576-.0853-1.2507-.115-1.9278-.1461-3.4074-.6166-4.7703-1.05l-.1657-.0527c-1.4076-.4468-2.7171-.8431-4.4521-.913-.3967-.016-1.1888.0131-1.9054.0479zm4.1208-10.6506c.0641-.0292.2341-.0732.5377-.0908.2836-.0164.6072-.006.925.0186.3146.0244.6054.0612.8183.0921.1058.0154.1911.0292.2488.0389l.0366.0062.0282.005.0022.0004 6.5675 1.4733.0451.0137c.0546.0164.1323.0391.2295.0661.1941.0538.468.1248.7934.1958.5852.1277 1.3692.2624 2.1684.2852-.057.1617-.1535.3526-.2843.5427-.1596.232-.3349.4114-.4788.5141-.4166.2976-.7528.4221-.9569.4751-.1033.0268-.176.0361-.2119.0393l-.014.0011-.0071.0004-5.362-.0648-.1914 1.9837.1793-.9838-.1783.984.0532.0096.1525.0274c.132.0237.3221.0575.5558.0984.467.0818 1.1085.192 1.806.3056 1.3744.224 3.031.4722 3.9709.5289.6491.0392 1.4051-.16 2.1082-.3948.7337-.2449 1.5625-.584 2.396-.926 1.7173-.7044 3.4659-1.4212 4.9355-1.6642 1.2704-.2102 1.7226.2539 1.8851.5711.2328.4545.1062.9597-.0719 1.1424-.0437.0448-.2012.1716-.5288.3841-.3053.198-.7006.434-1.1643.697-.9261.5252-2.0888 1.138-3.2727 1.7385-2.3915 1.2129-4.772 2.3263-5.4317 2.5679-.5342.1957-1.1944.2433-2.0542.199-.5079-.0261-.9897-.0751-1.515-.1286-.4246-.0432-.8777-.0892-1.3961-.1285-1.6918-.1282-2.978-.5368-4.3563-.9747l-.1256-.0399c-1.4276-.4532-2.9552-.9238-4.9768-1.0052-.4551-.0183-1.2653.0098-1.9859.0439v-7.1009c1.4055-.503 3.4871-1.2584 4.1208-1.5473zm2.7954-.9099.1833-.9831c.0002.0001 0 0-.1833.9831zm-8.9162.8119h-3v10.9954h3z" fill-rule="evenodd"/><path d="m24 14c-.5523 0-1 .4477-1 1s.4477 1 1 1h6c.5523 0 1-.4477 1-1s-.4477-1-1-1z"/><path d="m27 18.1719c.5523 0 1 .4477 1 1v2c0 .5523-.4477 1-1 1s-1-.4477-1-1v-2c0-.5523.4477-1 1-1z"/><path d="m31.1213 18.2929c-.3905-.3905-1.0237-.3905-1.4142 0s-.3905 1.0237 0 1.4142l1.4142 1.4142c.3905.3906 1.0237.3906 1.4142 0 .3905-.3905.3905-1.0236 0-1.4142z"/><path d="m21.2929 21.2929c-.3905-.3905-.3905-1.0237 0-1.4142l1.4142-1.4142c.3906-.3905 1.0237-.3905 1.4142 0 .3906.3905.3906 1.0237 0 1.4142l-1.4142 1.4142c-.3905.3905-1.0237.3905-1.4142 0z"/><path d="m28 24.1719c0-.5523-.4477-1-1-1s-1 .4477-1 1v1c0 .5523.4477 1 1 1s1-.4477 1-1z"/><path d="m33.2071 21.7929c.3905-.3905 1.0237-.3905 1.4142 0l1.4142 1.4142c.3905.3906.3905 1.0237 0 1.4142-.3905.3906-1.0237.3906-1.4142 0l-1.4142-1.4142c-.3905-.3905-.3905-1.0237 0-1.4142z"/><path d="m17.7929 23.1287c-.3905.3905-.3905 1.0237 0 1.4142s1.0237.3905 1.4142 0l1.4142-1.4142c.3906-.3905.3906-1.0237 0-1.4142-.3905-.3905-1.0236-.3905-1.4142 0z"/></g></svg>

<svg width="48" height="48" viewBox="0 0 48 48" fill="none" xmlns="http://www.w3.org/2000/svg">
<path fill-rule="evenodd" clip-rule="evenodd" d="M42 6V12H23V8C23 6.89543 23.8954 6 25 6H42ZM25 8H40V10H25V8Z" fill="#333333"/>
<path fill-rule="evenodd" clip-rule="evenodd" d="M13 39.7493V39.9961C13 41.1006 12.1046 41.9961 11 41.9961H8C6.89543 41.9961 6 41.1006 6 39.9961V29.0007C6 27.8962 6.89543 27.0007 8 27.0007H11C11.946 27.0007 12.7386 27.6575 12.9467 28.54C14.2711 28.0627 15.818 27.4946 16.2913 27.2788C16.6933 27.0957 17.1575 27.0335 17.5432 27.0112C17.9488 26.9878 18.3696 27.004 18.7378 27.0325C19.1092 27.0612 19.4463 27.1041 19.6897 27.1395C19.8119 27.1573 19.9119 27.1734 19.9824 27.1852C20.0177 27.1912 20.0457 27.196 20.0655 27.1996L20.089 27.2038L20.0959 27.2051L20.0995 27.2057L20.1174 27.2091L26.8062 28.7096L26.848 28.723L26.8594 28.7265L26.9055 28.7406C26.9476 28.7533 27.0115 28.772 27.0939 28.7948C27.259 28.8406 27.4964 28.9023 27.7794 28.964C28.3543 29.0894 29.0785 29.2065 29.7538 29.2065C30.3777 29.2065 31.0231 29.439 31.3681 30.0709C31.6644 30.6134 31.5954 31.2091 31.4845 31.6216C31.3464 32.135 31.0604 32.6753 30.6968 33.1343C31.1875 32.9492 31.7239 32.73 32.2997 32.4938L32.4228 32.4432C34.0458 31.7772 35.9703 30.9874 37.6678 30.7067C39.6075 30.3858 41.0193 31.0899 41.6593 32.3391C42.229 33.451 42.0967 34.9104 41.2393 35.7897C41.0241 36.0104 40.6962 36.2419 40.3669 36.4555C40.0153 36.6835 39.5822 36.9412 39.101 37.2141C38.1372 37.7608 36.9441 38.3892 35.7462 38.9967C33.3742 40.1997 30.8878 41.3696 30.0977 41.6589C29.1821 41.9943 28.1986 42.026 27.2528 41.9773C26.7376 41.9508 26.1391 41.8913 25.5442 41.8321C25.1144 41.7894 24.6866 41.7468 24.2935 41.7171C22.3657 41.571 20.8861 41.1005 19.5232 40.6671L19.3575 40.6144C17.9499 40.1676 16.6404 39.7713 14.9054 39.7014C14.5087 39.6854 13.7166 39.7145 13 39.7493ZM17.1208 29.0987C17.1849 29.0695 17.3549 29.0255 17.6585 29.0079C17.9421 28.9915 18.2657 29.0019 18.5835 29.0265C18.8981 29.0509 19.1889 29.0877 19.4018 29.1186C19.5076 29.134 19.5929 29.1478 19.6506 29.1575L19.6872 29.1637L19.7154 29.1687L19.7176 29.1691L26.2851 30.6424L26.3302 30.6561C26.3848 30.6725 26.4625 30.6952 26.5597 30.7222C26.7538 30.776 27.0277 30.847 27.3531 30.918C27.9383 31.0457 28.7223 31.1804 29.5215 31.2032C29.4645 31.3649 29.368 31.5558 29.2372 31.7459C29.0776 31.9779 28.9023 32.1573 28.7584 32.26C28.3418 32.5576 28.0056 32.6821 27.8015 32.7351C27.6982 32.7619 27.6255 32.7712 27.5896 32.7744L27.5756 32.7755L27.5685 32.7759L22.2065 32.7111L22.0151 34.6948L22.1944 33.711L22.0161 34.695L22.0693 34.7046L22.2218 34.732C22.3538 34.7557 22.5439 34.7895 22.7776 34.8304C23.2446 34.9122 23.8861 35.0224 24.5836 35.136C25.958 35.36 27.6146 35.6082 28.5545 35.6649C29.2036 35.7041 29.9596 35.5049 30.6627 35.2701C31.3964 35.0252 32.2252 34.6861 33.0587 34.3441C34.776 33.6397 36.5246 32.9229 37.9942 32.6799C39.2646 32.4697 39.7168 32.9338 39.8793 33.251C40.1121 33.7055 39.9855 34.2107 39.8074 34.3934C39.7637 34.4382 39.6062 34.565 39.2786 34.7775C38.9733 34.9755 38.578 35.2115 38.1143 35.4745C37.1882 35.9997 36.0255 36.6125 34.8416 37.213C32.4501 38.4259 30.0696 39.5393 29.4099 39.7809C28.8757 39.9766 28.2155 40.0242 27.3557 39.9799C26.8478 39.9538 26.366 39.9048 25.8407 39.8513C25.4161 39.8081 24.963 39.7621 24.4446 39.7228C22.7528 39.5946 21.4666 39.186 20.0883 38.7481L19.9627 38.7082C18.5351 38.255 17.0075 37.7844 14.9859 37.703C14.5308 37.6847 13.7206 37.7128 13 37.7469L13 30.646C14.4055 30.143 16.4871 29.3876 17.1208 29.0987ZM19.9162 28.1888L20.0995 27.2057C20.0997 27.2058 20.0995 27.2057 19.9162 28.1888ZM11 29.0007H8V39.9961H11V29.0007Z" fill="#333333"/>
<path d="M24 14C23.4477 14 23 14.4477 23 15C23 15.5523 23.4477 16 24 16H30C30.5523 16 31 15.5523 31 15C31 14.4477 30.5523 14 30 14H24Z" fill="#333333"/>
<path d="M27 18.1719C27.5523 18.1719 28 18.6196 28 19.1719V21.1719C28 21.7242 27.5523 22.1719 27 22.1719C26.4477 22.1719 26 21.7242 26 21.1719V19.1719C26 18.6196 26.4477 18.1719 27 18.1719Z" fill="#333333"/>
<path d="M31.1213 18.2929C30.7308 17.9024 30.0976 17.9024 29.7071 18.2929C29.3166 18.6834 29.3166 19.3166 29.7071 19.7071L31.1213 21.1213C31.5118 21.5119 32.145 21.5119 32.5355 21.1213C32.926 20.7308 32.926 20.0977 32.5355 19.7071L31.1213 18.2929Z" fill="#333333"/>
<path d="M21.2929 21.2929C20.9024 20.9024 20.9024 20.2692 21.2929 19.8787L22.7071 18.4645C23.0977 18.074 23.7308 18.074 24.1213 18.4645C24.5119 18.855 24.5119 19.4882 24.1213 19.8787L22.7071 21.2929C22.3166 21.6834 21.6834 21.6834 21.2929 21.2929Z" fill="#333333"/>
<path d="M28 24.1719C28 23.6196 27.5523 23.1719 27 23.1719C26.4477 23.1719 26 23.6196 26 24.1719V25.1719C26 25.7242 26.4477 26.1719 27 26.1719C27.5523 26.1719 28 25.7242 28 25.1719V24.1719Z" fill="#333333"/>
<path d="M33.2071 21.7929C33.5976 21.4024 34.2308 21.4024 34.6213 21.7929L36.0355 23.2071C36.426 23.5977 36.426 24.2308 36.0355 24.6213C35.645 25.0119 35.0118 25.0119 34.6213 24.6213L33.2071 23.2071C32.8166 22.8166 32.8166 22.1834 33.2071 21.7929Z" fill="#333333"/>
<path d="M17.7929 23.1287C17.4024 23.5192 17.4024 24.1524 17.7929 24.5429C18.1834 24.9334 18.8166 24.9334 19.2071 24.5429L20.6213 23.1287C21.0119 22.7382 21.0119 22.105 20.6213 21.7145C20.2308 21.324 19.5977 21.324 19.2071 21.7145L17.7929 23.1287Z" fill="#333333"/>
</svg>
